wp-content/themes/sayenko-erickson/public/images/case-study/left-quote orange.svg

<svg height="62" viewBox="0 0 79 62" width="79" xmlns="http://www.w3.org/2000/svg"><g fill="#e9731f" transform=""><path d="m34.4 27.104v34.496h-34.4v-34.9888c0-23.6544 22.1142857-26.6112 22.1142857-26.6112l2.9485714 6.8992s-9.8285714 1.4784-11.7942857 9.3632c-1.9657143 5.9136 1.9657143 10.8416 1.9657143 10.8416z"/><path d="m78.4 27.104v34.496h-34.4v-34.9888c0-23.6544 22.1142857-26.6112 22.1142857-26.6112l2.9485714 6.8992s-9.8285714 1.4784-11.7942857 9.3632c-1.9657143 5.9136 1.9657143 10.8416 1.9657143 10.8416z"/></g></svg>

<svg height="62" viewBox="0 0 79 62" width="79" xmlns="http://www.w3.org/2000/svg"><path d="M34.4 27.104V61.6H0V26.611C0 2.957 22.114 0 22.114 0l2.949 6.9s-9.829 1.478-11.794 9.362c-1.966 5.914 1.965 10.842 1.965 10.842zm44 0V61.6H44V26.611C44 2.957 66.114 0 66.114 0l2.949 6.9s-9.829 1.478-11.794 9.362c-1.966 5.914 1.965 10.842 1.965 10.842z" fill="#e9731f"/></svg>
